X:37
T:Heiress. THO5.037, The
M:6/8
L:1/8
B:Thompson's Complete Collection of 200 Favourite Dances Vol.5
F:https://www.libraryofdance.org/manuals/1780c-Thompson-Compleat-5.pdf
Z:vmp. Peter Dunk 2024
Q:3/8=110
K:A
A2A AEA|cAc ece|agf edc|BcA GFE|
A2A AEA|cAc ece|fga gfe|Tf3 e3:|
|:ece dBd|cAc BGB|Aba gfg|aed cBA|
ece dBd|cAc BGB|Aba gfg|a3 A3:|
W:
W:Cast odd 2 Couples and up again ./.
W:Cross over 2 Couples, up againand cast off ./:
W:Hands 4 quite round at bottom :/.
W:Right and left at top :/:

